symbolic/64x64/apps/com.github.artemanufrij.regextester.svg

<svg xmlns="http://www.w3.org/2000/svg" width="64" height="64" version="1">
 <rect style="opacity:0.2" width="56" height="56" x="4" y="5" rx="2.8" ry="2.8"/>
 <rect style="fill:#70ae39" width="56" height="56" x="4" y="4" rx="2.8" ry="2.8"/>
 <path style="opacity:0.2" d="M 16.986328,22 12,39 14.060547,39 19,22 16.986328,22 Z M 19,22 23.939453,39 26,39 21.013672,22 19,22 Z M 37.986328,22 33,39 35.060547,39 40,22 37.986328,22 Z m 10.972656,4 c -0.03186,0.05413 -0.06386,0.609416 -0.0957,1.181641 -0.03184,0.572226 -0.04883,0.975045 -0.04883,1.207031 l -0.02539,0 c -0.366267,-0.750083 -0.885699,-1.326409 -1.5625,-1.728516 -0.668838,-0.409838 -1.461282,-0.613281 -2.376953,-0.613281 -1.632284,0 -2.850095,0.53045 -3.654297,1.589844 C 40.399065,28.688378 40,30.921312 40,33.140625 c 0,2.188377 0.370829,3.377707 1.111328,4.398437 0.748462,1.020728 1.915491,1.529297 3.5,1.529297 0.947521,0 1.775724,-0.199455 2.484375,-0.601562 0.70865,-0.409838 1.263842,-1.016103 1.669922,-1.820313 l 0.02344,0 0,2.017578 c 0,2.435829 -1.069062,3.345704 -3.210937,3.345704 -0.796235,10e-7 -1.441882,-0.155613 -1.935547,-0.472657 -0.485705,-0.309312 -0.800037,-0.755977 -0.943359,-1.335937 l -2.16211,0.302734 c 0.23887,0.989796 0.777234,2.151986 1.613282,2.685547 C 42.986432,43.730749 44.110194,44 45.519531,44 49.126479,44 51,42.143343 51,38.617188 L 51,28.769531 51,26 48.958984,26 Z m -4.078125,2 c 0.603638,0 1.140557,0.178767 1.613282,0.537109 0.479999,0.351314 0.851461,0.864537 1.113281,1.539063 C 47.869246,30.74367 48,32.066669 48,32.994141 c 0,0.906393 -0.130753,1.312185 -0.392578,1.972656 -0.26182,0.653447 -0.633282,1.154544 -1.113281,1.505859 C 46.01414,36.823972 45.465836,37 44.847656,37 43.807657,37 43.073623,36.660069 42.644531,35.978516 42.215442,35.296964 42,34.553984 42,32.994141 42,31.420248 42.22932,29.757317 42.6875,29.054688 43.145686,28.352058 43.877225,28 44.880859,28 Z M 28,36 l 0,3 3,0 0,-3 -3,0 z"/>
 <path style="fill:#3f3f3f" d="M 16.985424,21 12,38 14.061224,38 19,21 16.985424,21 Z"/>
 <path style="fill:#ffffff" d="m 28,38 0,-3 3,0 0,3 -3,0 z"/>
 <path style="fill:#3f3f3f" d="M 37.985424,21 33,38 35.061224,38 40,21 37.985424,21 Z"/>
 <path style="fill:#3f3f3f" d="m 48.958984,25 c -0.03186,0.05413 -0.06386,0.609416 -0.0957,1.181641 -0.03184,0.572226 -0.04883,0.975045 -0.04883,1.207031 l -0.02539,0 c -0.366267,-0.750083 -0.885699,-1.326409 -1.5625,-1.728516 -0.668838,-0.409838 -1.461282,-0.613281 -2.376953,-0.613281 -1.632284,0 -2.850096,0.53045 -3.654297,1.589844 C 40.399066,27.688378 40,29.921312 40,32.140625 c 0,2.188377 0.370829,3.377707 1.111328,4.398437 0.748462,1.020728 1.915491,1.529297 3.5,1.529297 0.947521,0 1.775724,-0.199455 2.484375,-0.601562 0.70865,-0.409838 1.263842,-1.016103 1.669922,-1.820313 l 0.02344,0 0,2.017578 c 0,2.435829 -1.069062,3.346157 -3.210937,3.346157 -0.796235,10e-7 -1.441882,-0.155456 -1.935547,-0.4725 -0.485705,-0.309312 -0.800037,-0.755978 -0.943359,-1.335938 l -2.16211,0.302735 c 0.23887,0.989796 0.777234,2.151376 1.613282,2.684937 C 42.986435,42.730749 44.110194,43 45.519531,43 49.126479,43 51,41.143343 51,37.617188 L 51,27.769531 51,25 Z m -4.078125,2 c 0.603638,0 1.140557,0.178767 1.613282,0.537109 0.479999,0.351314 0.851461,0.864537 1.113281,1.539063 C 47.869246,29.74367 48,31.066669 48,31.994141 c 0,0.906393 -0.130753,1.312185 -0.392578,1.972656 -0.26182,0.653447 -0.633282,1.154544 -1.113281,1.505859 C 46.01414,35.823972 45.465836,36 44.847656,36 43.807657,36 43.073623,35.660069 42.644531,34.978516 42.215442,34.296964 42,33.553984 42,31.994141 42,30.420248 42.22932,28.757317 42.6875,28.054688 43.145686,27.352058 43.877225,27 44.880859,27 Z"/>
 <path style="fill:#ffffff" d="M 21.014576,21 26,38 23.938776,38 19,21 l 2.014576,0 z"/>
 <path style="fill:#ffffff;opacity:0.2" d="M 6.8007812 4 C 5.2495813 4 4 5.2495813 4 6.8007812 L 4 7.8007812 C 4 6.2495813 5.2495813 5 6.8007812 5 L 57.199219 5 C 58.750419 5 60 6.2495813 60 7.8007812 L 60 6.8007812 C 60 5.2495813 58.750419 4 57.199219 4 L 6.8007812 4 z"/>
</svg>

<svg xmlns="http://www.w3.org/2000/svg" width="64" height="64" version="1"><rect style="opacity:.2" width="56" height="56" x="4" y="5" rx="2.8" ry="2.8"/><rect style="fill:#70ae39" width="56" height="56" x="4" y="4" rx="2.8" ry="2.8"/><path style="opacity:.2" d="M16.986 22 12 39h2.06L19 22h-2.014zM19 22l4.94 17H26l-4.986-17H19zm18.986 0L33 39h2.06L40 22h-2.014zm10.973 4c-.032.054-.064.61-.096 1.182s-.049.975-.049 1.207h-.025c-.366-.75-.886-1.327-1.562-1.729-.67-.41-1.462-.613-2.377-.613-1.633 0-2.85.53-3.655 1.59C40.4 28.688 40 30.92 40 33.14c0 2.188.37 3.377 1.111 4.398.749 1.02 1.916 1.53 3.5 1.53.948 0 1.776-.2 2.485-.602.708-.41 1.264-1.016 1.67-1.82h.023v2.017c0 2.436-1.069 3.346-3.21 3.346-.797 0-1.443-.156-1.936-.473-.486-.31-.8-.756-.944-1.336l-2.162.303c.239.99.777 2.152 1.613 2.685.836.542 1.96.811 3.37.811 3.606 0 5.48-1.857 5.48-5.383V26h-2.041zm-4.078 2c.603 0 1.14.179 1.613.537.48.351.852.865 1.113 1.54.262.667.393 1.99.393 2.917 0 .907-.13 1.312-.393 1.973-.261.653-.633 1.154-1.113 1.506a2.715 2.715 0 0 1-1.646.527c-1.04 0-1.774-.34-2.203-1.021-.43-.682-.645-1.425-.645-2.985 0-1.574.23-3.237.688-3.94.458-.702 1.19-1.054 2.193-1.054zM28 36v3h3v-3h-3z"/><path style="fill:#3f3f3f" d="M16.985 21 12 38h2.061L19 21h-2.015z"/><path style="fill:#fff" d="M28 38v-3h3v3h-3z"/><path style="fill:#3f3f3f" d="M37.985 21 33 38h2.061L40 21h-2.015zM48.959 25c-.032.054-.064.61-.096 1.182s-.049.975-.049 1.207h-.025c-.366-.75-.886-1.327-1.562-1.729-.67-.41-1.462-.613-2.377-.613-1.633 0-2.85.53-3.655 1.59C40.4 27.688 40 29.92 40 32.14c0 2.188.37 3.377 1.111 4.398.749 1.02 1.916 1.53 3.5 1.53.948 0 1.776-.2 2.485-.602.708-.41 1.264-1.016 1.67-1.82h.023v2.017c0 2.436-1.069 3.346-3.21 3.346-.797 0-1.443-.155-1.936-.472-.486-.31-.8-.756-.944-1.336l-2.162.303c.239.99.777 2.15 1.613 2.684.836.542 1.96.811 3.37.811 3.606 0 5.48-1.857 5.48-5.383V25zm-4.078 2c.603 0 1.14.179 1.613.537.48.351.852.865 1.113 1.54.262.667.393 1.99.393 2.917 0 .907-.13 1.312-.393 1.973-.261.653-.633 1.154-1.113 1.506a2.715 2.715 0 0 1-1.646.527c-1.04 0-1.774-.34-2.203-1.021-.43-.682-.645-1.425-.645-2.985 0-1.574.23-3.237.688-3.94.458-.702 1.19-1.054 2.193-1.054z"/><path style="fill:#fff" d="M21.015 21 26 38h-2.061L19 21h2.015z"/><path style="fill:#fff;opacity:.2" d="M6.8 4C5.25 4 4 5.25 4 6.8v1C4 6.25 5.25 5 6.8 5h50.4C58.75 5 60 6.25 60 7.8v-1C60 5.25 58.75 4 57.2 4H6.8z"/></svg>
